src/assets/img/restaurantes_g.svg

<svg fill="none" viewBox="0 0 150 200" xmlns="http://www.w3.org/2000/svg"><g fill="#fff"><path d="m58.1317 96.33 1.1159.0071h.0156c11.4284-.0227 20.677-9.3045 20.6545-20.7342l-.0783-41.2315-7.4541.0142.0783 41.2315c.0145 7.3068-5.8942 13.2434-13.2005 13.2659l-11.4495-.0736h-.0156c-7.3118.0145-13.2509-5.9022-13.2647-13.2148l-.0792-41.2317-7.4541.0144.0792 41.2314c.0216 11.4233 9.295 20.6687 20.7172 20.6548l2.8813.0186-.1855 69.8159 7.4541.019z"/><path d="m42.9863 71.7761.1351-37.4253 7.4541.0269-.1351 37.4253z"/><path d="m56.9417 34.3244-.1351 37.4253 7.4541.0269.1351-37.4253z"/><path clip-rule="evenodd" d="m92.4162 166.114 7.4541-.014-.0901-47.144 23.6808-.046-.066-34.2724c-.036-19.3743-8.482-37.7785-23.147-50.4403-3.1709-2.7376-8.0847-.4764-8.0769 3.7068z" fill-rule="evenodd"/></g></svg>

<svg viewBox="0 0 150 200" fill="none" xmlns="http://www.w3.org/2000/svg">
<path d="M58.1317 96.33L59.2476 96.3371L59.2632 96.3371C70.6916 96.3144 79.9402 87.0326 79.9177 75.6029L79.8394 34.3714L72.3853 34.3856L72.4636 75.6171C72.4781 82.9239 66.5694 88.8605 59.2631 88.883L47.8136 88.8094L47.798 88.8094C40.4862 88.8239 34.5471 82.9072 34.5333 75.5946L34.4541 34.3629L27 34.3773L27.0792 75.6087C27.1008 87.032 36.3742 96.2774 47.7964 96.2635L50.6777 96.2821L50.4922 166.098L57.9463 166.117L58.1317 96.33Z" fill="white"/>
<path d="M42.9863 71.7761L43.1214 34.3508L50.5755 34.3777L50.4404 71.803L42.9863 71.7761Z" fill="white"/>
<path d="M56.9417 34.3244L56.8066 71.7497L64.2607 71.7766L64.3958 34.3513L56.9417 34.3244Z" fill="white"/>
<path fill-rule="evenodd" clip-rule="evenodd" d="M92.4162 166.114L99.8703 166.1L99.7802 118.956L123.461 118.91L123.395 84.6376C123.359 65.2633 114.913 46.8591 100.248 34.1973C97.0771 31.4597 92.1633 33.7209 92.1711 37.9041L92.4162 166.114Z" fill="white"/>
</svg>
